static/svg/icons/icon-email.svg

<?xml version="1.0" encoding="UTF-8"?>
<svg width="60px" height="40px" viewBox="0 0 60 40" version="1.1" xmlns="http://www.w3.org/2000/svg" xmlns:xlink="http://www.w3.org/1999/xlink">
    <!-- Generator: Sketch 57.1 (83088) - https://sketch.com -->
    <title>email</title>
    <desc>Created with Sketch.</desc>
    <g id="Website" stroke="none" stroke-width="1" fill="none" fill-rule="evenodd">
        <g id="02-vision" transform="translate(-120.000000, -2952.000000)" fill="#000000">
            <g id="Group-17" transform="translate(0.000000, 2882.000000)">
                <g id="email" transform="translate(120.000000, 70.000000)">
                    <path d="M6,4 C6,2.897 6.897,2 8,2 L52,2 C53.103,2 54,2.897 54,4 L54,7.541 C54.742,6.88 55.412,6.267 56,5.714 L56,4 C56,1.791 54.209,0 52,0 L8,0 C5.791,0 4,1.791 4,4 L4,5.714 C4.588,6.266 5.258,6.879 6,7.54 L6,4 Z" id="Fill-1"></path>
                    <path d="M54,36 C54,37.103 53.103,38 52,38 L8,38 C6.897,38 6,37.103 6,36 L6,15.456 C5.295,14.875 4.625,14.312 4,13.774 L4,36 C4,38.209 5.791,40 8,40 L52,40 C54.209,40 56,38.209 56,36 L56,13.774 C55.375,14.312 54.705,14.875 54,15.457 L54,36 Z" id="Fill-3"></path>
                    <path d="M59.7168,6.3027 C59.3308,5.9067 58.6978,5.8987 58.3028,6.2827 C58.1198,6.4607 39.9788,23.9997 29.9998,23.9997 C20.0268,23.9997 1.8798,6.4607 1.6968,6.2827 C1.3008,5.8987 0.6698,5.9067 0.2828,6.3027 C-0.1022,6.6987 -0.0932,7.3317 0.3028,7.7167 C1.0698,8.4637 19.2178,25.9997 29.9998,25.9997 C40.7818,25.9997 58.9298,8.4637 59.6968,7.7167 C60.0928,7.3317 60.1018,6.6987 59.7168,6.3027" id="Fill-5"></path>
                </g>
            </g>
        </g>
    </g>
</svg>

<svg width="60" height="40" xmlns="http://www.w3.org/2000/svg"><g fill-rule="evenodd"><path d="M6 4c0-1.103.897-2 2-2h44c1.103 0 2 .897 2 2v3.541c.742-.661 1.412-1.274 2-1.827V4a4 4 0 0 0-4-4H8a4 4 0 0 0-4 4v1.714c.588.552 1.258 1.165 2 1.826V4zm48 32c0 1.103-.897 2-2 2H8c-1.103 0-2-.897-2-2V15.456a122.427 122.427 0 0 1-2-1.682V36a4 4 0 0 0 4 4h44a4 4 0 0 0 4-4V13.774a127.56 127.56 0 0 1-2 1.683V36z"/><path d="M59.717 6.303a1 1 0 0 0-1.414-.02C58.12 6.46 39.979 24 30 24 20.027 24 1.88 6.46 1.697 6.283A1 1 0 0 0 .303 7.717C1.07 8.464 19.218 26 30 26S58.93 8.464 59.697 7.717a1 1 0 0 0 .02-1.414"/></g></svg>
